assets/images/power.svg

<svg width="18" height="18" viewBox="0 0 18 18" fill="none" xmlns="http://www.w3.org/2000/svg">
<path d="M16.7021 7.21758C16.5049 6.36177 16.1712 5.55578 15.7066 4.81367L16.3757 3.69773L14.3023 1.62432L13.1863 2.29338C12.4442 1.82883 11.6383 1.49509 10.7824 1.2979L10.4667 0H7.53328L7.21758 1.2979C6.36173 1.49512 5.55575 1.82883 4.8136 2.29338L3.6977 1.62436L1.62429 3.69773L2.29334 4.81367C1.82879 5.55581 1.49505 6.36177 1.29786 7.21761L0 7.53328V10.4666L1.2979 10.7824C1.49512 11.6382 1.82883 12.4442 2.29338 13.1863L1.62436 14.3023L3.69773 16.3757L4.81367 15.7066C5.55581 16.1711 6.36177 16.5048 7.21761 16.7021L7.53328 18H10.4666L10.7824 16.7021C11.6382 16.5049 12.4442 16.1712 13.1863 15.7066L14.3023 16.3757L16.3757 14.3023L15.7066 13.1863C16.1711 12.4442 16.5048 11.6383 16.7021 10.7824L18 10.4667V7.53328L16.7021 7.21758ZM9 14.8008C5.80148 14.8008 3.19922 12.1985 3.19922 9C3.19922 5.80148 5.80148 3.19922 9 3.19922C12.1985 3.19922 14.8008 5.80148 14.8008 9C14.8008 12.1985 12.1985 14.8008 9 14.8008Z" fill="#E30000"/>
<path d="M9.5272 4.28711L5.38525 10.5828H8.47253V13.7144L12.6145 7.41875H9.5272V4.28711Z" fill="#E30000"/>
</svg>

<svg xmlns="http://www.w3.org/2000/svg" width="18" height="18" fill="none"><path fill="#E30000" d="M16.702 7.218a7.8 7.8 0 0 0-.995-2.404l.669-1.116-2.074-2.074-1.116.67a7.8 7.8 0 0 0-2.404-.996L10.467 0H7.533l-.315 1.298a7.8 7.8 0 0 0-2.404.995l-1.116-.669-2.074 2.074.67 1.116a7.8 7.8 0 0 0-.996 2.404L0 7.533v2.934l1.298.315c.197.856.53 1.662.995 2.404l-.669 1.116 2.074 2.074 1.116-.67a7.8 7.8 0 0 0 2.404.996L7.533 18h2.934l.315-1.298a7.8 7.8 0 0 0 2.404-.995l1.116.669 2.074-2.074-.67-1.116a7.8 7.8 0 0 0 .996-2.404L18 10.467V7.533zM9 14.8A5.807 5.807 0 0 1 3.2 9C3.2 5.801 5.8 3.2 9 3.2S14.8 5.8 14.8 9s-2.602 5.8-5.8 5.8"/><path fill="#E30000" d="m9.527 4.287-4.142 6.296h3.088v3.131l4.141-6.295H9.528z"/></svg>
